X: 1
T:Willie Davie
M:C
L:1/8
Q:80
C:Arr.Roddy MacDonald
S:Reel
K:HP
|: {g}c3/2e/2{A}e3/2f/2{g}e3/2A/2{d}A3/2a/2|
c3/2e/2{A}e3/2a/2{fg}f2{g}e2|
{g}c3/2e/2{A}e3/2f/2{g}e3/2A/2{d}A3/2a/2|  !
B3/2c/2{g}d3/2e/2{fg}f2{g}e2:|
{ag}a2A3/2a/2f3/2e/2{g}c/2e3/2|
a3/2A/2{d}A3/2a/2{fg}f2{g}e2|  !
{ag}a2A3/2a/2f3/2e/2{g}d3/2c/2|
{g}B3/2c/2{g}d3/2e/2{gfg}f2{g}e2|
{ag}a2A3/2a/2f3/2e/2{g}c/2e3/2|  !
a3/2A/2{d}A3/2a/2{fg}f2{g}e2|
a3/2g/2a3/2g/2{a}f3/2e/2{g}d3/2c/2|
{g}B3/2c/2{g}d3/2e/2{gfg}f2{g}e2|] |:  !
{gcd}c2{g}e3/2a/2A3/2{d}c/2{g}e3/2a/2|
{gcd}c2{g}e3/2a/2{fg}f2{g}e2|
{gcd}c2{g}e3/2a/2A3/2{d}c/2{g}e3/2a/2|  !
{g}B3/2c/2{g}d3/2e/2{gfg}f2{g}e2:|
a3/2{g}a/2{g}a3/2e/2f3/2e/2{g}c/2e3/2|
a3/2A/2{d}A3/2a/2{fg}f2{g}e2|  !
a3/2{g}a/2{g}a3/2e/2f3/2e/2{g}c/2e3/2|
{g}B3/2c/2{g}d3/2e/2{gfg}f2{g}e2|
a3/2{g}a/2{g}a3/2e/2f3/2e/2{g}c/2e3/2|  !
a3/2A/2{d}A3/2a/2{fg}f2{g}e2|
{g}f3/2e/2{g}e3/2d/2{g}d3/2c/2{g}c/2{d}A3/2|
{g}B3/2c/2{g}d3/2e/2{gfg}f2{g}e2|]  !
